assets/img/braze_icons/star-07.svg

<svg fill="none" height="24" viewBox="0 0 24 24" width="24" xmlns="http://www.w3.org/2000/svg"><g fill="#801ed7"><path d="m12 1c.5523 0 1 .44772 1 1v2c0 .55228-.4477 1-1 1s-1-.44772-1-1v-2c0-.55228.4477-1 1-1z"/><path d="m5.63582 4.22185c-.39053-.39053-1.02369-.39053-1.41422 0-.39052.39052-.39052 1.02369 0 1.41421l1.41422 1.41422c.39052.39052 1.02369.39052 1.41421 0 .39053-.39053.39053-1.02369 0-1.41422z"/><path d="m1 12c0-.5523.44772-1 1-1h2c.55228 0 1 .4477 1 1s-.44772 1-1 1h-2c-.55228 0-1-.4477-1-1z"/><path d="m20 11c-.5523 0-1 .4477-1 1s.4477 1 1 1h2c.5523 0 1-.4477 1-1s-.4477-1-1-1z"/><path d="m18.3638 16.9496c-.3905-.3905-1.0236-.3905-1.4142 0-.3905.3906-.3905 1.0237 0 1.4142l1.4142 1.4143c.3906.3905 1.0237.3905 1.4143 0 .3905-.3906.3905-1.0237 0-1.4143z"/><path d="m19.7781 5.63606c.3905-.39052.3905-1.02369 0-1.41421-.3906-.39053-1.0237-.39053-1.4143 0l-1.4142 1.41421c-.3905.39053-.3905 1.02369 0 1.41422.3906.39052 1.0237.39052 1.4142 0z"/><path d="m12 19c.5523 0 1 .4477 1 1v2c0 .5523-.4477 1-1 1s-1-.4477-1-1v-2c0-.5523.4477-1 1-1z"/><path d="m7.05003 18.3638c.39053-.3905.39053-1.0236 0-1.4142-.39052-.3905-1.02369-.3905-1.41421 0l-1.41422 1.4142c-.39052.3906-.39052 1.0237 0 1.4143.39053.3905 1.02369.3905 1.41422 0z"/><path d="m12.8967 6.55738c-.1684-.34131-.5161-.55738-.8967-.55738s-.7282.21607-.8967.55738l-1.31253 2.65908-2.93537.42905c-.37656.05504-.68924.31905-.80662.68109-.11737.362-.0191.7592.25352 1.0248l2.12321 2.068-.50109 2.9216c-.06435.3751.0899.7543.39788.9781.30797.2237.71626.2532 1.05318.076l2.62452-1.3803 2.6246 1.3803c.3369.1772.7452.1477 1.0532-.076.3079-.2238.4622-.603.3978-.9781l-.501-2.9216 2.1232-2.068c.2726-.2656.3709-.6628.2535-1.0248-.1174-.36204-.4301-.62605-.8066-.68109l-2.9354-.42904z"/></g></svg>

<svg width="24" height="24" viewBox="0 0 24 24" fill="none" xmlns="http://www.w3.org/2000/svg">
<path d="M12 1C12.5523 1 13 1.44772 13 2V4C13 4.55228 12.5523 5 12 5C11.4477 5 11 4.55228 11 4V2C11 1.44772 11.4477 1 12 1Z" fill="#801ED7"/>
<path d="M5.63582 4.22185C5.24529 3.83132 4.61213 3.83132 4.2216 4.22185C3.83108 4.61237 3.83108 5.24554 4.2216 5.63606L5.63582 7.05028C6.02634 7.4408 6.65951 7.4408 7.05003 7.05028C7.44056 6.65975 7.44056 6.02659 7.05003 5.63606L5.63582 4.22185Z" fill="#801ED7"/>
<path d="M1 12C1 11.4477 1.44772 11 2 11H4C4.55228 11 5 11.4477 5 12C5 12.5523 4.55228 13 4 13H2C1.44772 13 1 12.5523 1 12Z" fill="#801ED7"/>
<path d="M20 11C19.4477 11 19 11.4477 19 12C19 12.5523 19.4477 13 20 13H22C22.5523 13 23 12.5523 23 12C23 11.4477 22.5523 11 22 11H20Z" fill="#801ED7"/>
<path d="M18.3638 16.9496C17.9733 16.5591 17.3402 16.5591 16.9496 16.9496C16.5591 17.3402 16.5591 17.9733 16.9496 18.3638L18.3638 19.7781C18.7544 20.1686 19.3875 20.1686 19.7781 19.7781C20.1686 19.3875 20.1686 18.7544 19.7781 18.3638L18.3638 16.9496Z" fill="#801ED7"/>
<path d="M19.7781 5.63606C20.1686 5.24554 20.1686 4.61237 19.7781 4.22185C19.3875 3.83132 18.7544 3.83132 18.3638 4.22185L16.9496 5.63606C16.5591 6.02659 16.5591 6.65975 16.9496 7.05028C17.3402 7.4408 17.9733 7.4408 18.3638 7.05028L19.7781 5.63606Z" fill="#801ED7"/>
<path d="M12 19C12.5523 19 13 19.4477 13 20V22C13 22.5523 12.5523 23 12 23C11.4477 23 11 22.5523 11 22V20C11 19.4477 11.4477 19 12 19Z" fill="#801ED7"/>
<path d="M7.05003 18.3638C7.44056 17.9733 7.44056 17.3402 7.05003 16.9496C6.65951 16.5591 6.02634 16.5591 5.63582 16.9496L4.2216 18.3638C3.83108 18.7544 3.83108 19.3875 4.2216 19.7781C4.61213 20.1686 5.24529 20.1686 5.63582 19.7781L7.05003 18.3638Z" fill="#801ED7"/>
<path d="M12.8967 6.55738C12.7283 6.21607 12.3806 6 12 6C11.6194 6 11.2718 6.21607 11.1033 6.55738L9.79077 9.21646L6.8554 9.64551C6.47884 9.70055 6.16616 9.96456 6.04878 10.3266C5.93141 10.6886 6.02968 11.0858 6.3023 11.3514L8.42551 13.4194L7.92442 16.341C7.86007 16.7161 8.01432 17.0953 8.3223 17.3191C8.63027 17.5428 9.03856 17.5723 9.37548 17.3951L12 16.0148L14.6246 17.3951C14.9615 17.5723 15.3698 17.5428 15.6778 17.3191C15.9857 17.0953 16.14 16.7161 16.0756 16.341L15.5746 13.4194L17.6978 11.3514C17.9704 11.0858 18.0687 10.6886 17.9513 10.3266C17.8339 9.96456 17.5212 9.70055 17.1447 9.64551L14.2093 9.21647L12.8967 6.55738Z" fill="#801ED7"/>
</svg>
